X: 14705
T: Gan Ainm
R: jig
M: 6/8
K: Dmajor
|:(3A/B/c/|d2 c d2 e|f2 e d2 c|B2 e dca|gfe d2 A|
d2 c d2 e|f2 e d2 c|Bed cBc|d3 d2:|
|:g|fga a2 g|efg g2 f|agf agf|efe e2 e|
fga a2 g|efg g2 f|d/e/f/g/a/f/ eae|dcB A2:|
|:(3A/B/A/|d3 f3|dgf ecd|e3 g3|eag fed|
cAe dAf|eAg fdg|fag fed|a3 z2:|

